img/warning.svg

<svg width="32" height="28" viewBox="0 0 32 28" fill="none" xmlns="http://www.w3.org/2000/svg">
<path d="M30.4445 28H1.55858C1.00175 28 0.487217 27.7035 0.208806 27.2222C-0.0696055 26.7409 -0.0696018 26.1479 0.208816 25.6665L14.651 0.776403C14.9296 0.295885 15.4437 0 16 0C16.5563 0 17.0704 0.295885 17.349 0.776403L31.7912 25.6665C32.0695 26.1476 32.0696 26.7403 31.7916 27.2215C31.5136 27.7027 30.9995 27.9994 30.443 28H30.4445ZM16.0023 4.66549L4.26435 24.8887H27.7434L16.0023 4.66549ZM17.5532 18.6678H14.4359V10.888H17.5532V18.6678Z" fill="#FF9828"/>
<path d="M14.4437 20.2249H17.561V23.3362H14.4437V20.2249Z" fill="#FF9828"/>
</svg>

<svg width="32" height="28" fill="none" xmlns="http://www.w3.org/2000/svg"><path d="M30.445 28H1.559a1.553 1.553 0 0 1-1.35-2.334L14.65.776a1.56 1.56 0 0 1 2.698 0l14.442 24.89A1.553 1.553 0 0 1 30.443 28h.002ZM16.002 4.665 4.264 24.89h23.48L16.001 4.665Zm1.551 14.003h-3.117v-7.78h3.117v7.78Z" fill="#FF9828"/><path d="M14.444 20.225h3.117v3.111h-3.117v-3.111Z" fill="#FF9828"/></svg>
